icons/src/arrow.up.forward.svg

<?xml version="1.0" encoding="UTF-8"?>
<!--Generator: Apple Native CoreSVG 341-->
<!DOCTYPE svg
PUBLIC "-//W3C//DTD SVG 1.1//EN"
       "http://www.w3.org/Graphics/SVG/1.1/DTD/svg11.dtd">
<svg version="1.1" xmlns="http://www.w3.org/2000/svg" xmlns:xlink="http://www.w3.org/1999/xlink" viewBox="0 0 14.7974 14.419">
 <g>
  <rect height="14.419" opacity="0" width="14.7974" x="0" y="0"/>
  <path d="M0.27467 14.148C0.635999 14.4996 1.13405 14.5191 1.50514 14.148L11.4172 4.24565L13.4094 2.09722C13.7415 1.76519 13.7415 1.32573 13.4192 1.01323C13.0969 0.690967 12.6477 0.681202 12.3255 1.01323L10.177 3.00542L0.27467 12.9175C-0.0964233 13.2886-0.0866577 13.7867 0.27467 14.148ZM12.6575 7.2144L12.6575 10.8179C12.6575 11.2867 13.0676 11.7066 13.5462 11.7066C14.0149 11.7066 14.4348 11.316 14.4348 10.7789L14.4251 0.964405C14.4251 0.397999 14.054 0.0171393 13.4778 0.0171393L3.65358 0.0171393C3.1067 0.0171393 2.73561 0.427296 2.73561 0.896046C2.73561 1.3648 3.15553 1.76519 3.61451 1.76519L7.01295 1.76519L12.8919 1.56987Z" fill="white"/>
 </g>
</svg>

<!--Generator: Apple Native CoreSVG 341-->
<!DOCTYPE svg  PUBLIC '-//W3C//DTD SVG 1.1//EN'  'http://www.w3.org/Graphics/SVG/1.1/DTD/svg11.dtd'>
<svg version="1.1" viewBox="0 0 14.797 14.419" xmlns="http://www.w3.org/2000/svg">
 <rect width="14.797" height="14.419" opacity="0"/>
 <path d="m0.27467 14.148c0.36133 0.3516 0.85938 0.3711 1.2305 0l9.9121-9.9024 1.9922-2.1484c0.3321-0.33203 0.3321-0.77149 0.0098-1.084-0.3223-0.32226-0.7715-0.33203-1.0937 0l-2.1485 1.9922-9.9023 9.9121c-0.37109 0.3711-0.36133 0.8692 0 1.2305zm12.383-6.9336v3.6035c0 0.4688 0.4101 0.8887 0.8887 0.8887 0.4687 0 0.8886-0.3906 0.8886-0.9277l-0.0097-9.8145c0-0.56641-0.3711-0.94727-0.9473-0.94727h-9.8242c-0.54688 0-0.91797 0.41016-0.91797 0.87891s0.41992 0.86914 0.8789 0.86914h3.3984l5.879-0.19532z" fill="#fff"/>
</svg>
